assets/imgs/github.svg

<svg xmlns="http://www.w3.org/2000/svg" fill="white" width="24" height="24" viewBox="0 0 24 24"><path fill-rule="evenodd" clip-rule="evenodd" d="M12.026 2c-5.509 0-9.974 4.465-9.974 9.974 0 4.406 2.857 8.145 6.821 9.465.499.09.679-.217.679-.481 0-.237-.008-.865-.011-1.696-2.775.602-3.361-1.338-3.361-1.338-.452-1.152-1.107-1.459-1.107-1.459-.905-.619.069-.605.069-.605 1.002.07 1.527 1.028 1.527 1.028.89 1.524 2.336 1.084 2.902.829.091-.645.351-1.085.635-1.334-2.214-.251-4.542-1.107-4.542-4.93 0-1.087.389-1.979 1.024-2.675-.101-.253-.446-1.268.099-2.64 0 0 .837-.269 2.742 1.021a9.582 9.582 0 0 1 2.496-.336 9.554 9.554 0 0 1 2.496.336c1.906-1.291 2.742-1.021 2.742-1.021.545 1.372.203 2.387.099 2.64.64.696 1.024 1.587 1.024 2.675 0 3.833-2.33 4.675-4.552 4.922.355.308.675.916.675 1.846 0 1.334-.012 2.41-.012 2.737 0 .267.178.577.687.479C19.146 20.115 22 16.379 22 11.974 22 6.465 17.535 2 12.026 2z"/></svg>

<svg width="24" height="24" viewBox="0 0 24 24" fill="none" xmlns="http://www.w3.org/2000/svg">
<path fill-rule="evenodd" clip-rule="evenodd" d="M12.026 2C6.517 2 2.052 6.465 2.052 11.974C2.052 16.38 4.909 20.119 8.873 21.439C9.372 21.529 9.552 21.222 9.552 20.958C9.552 20.721 9.544 20.093 9.541 19.262C6.766 19.864 6.18 17.924 6.18 17.924C5.728 16.772 5.073 16.465 5.073 16.465C4.168 15.846 5.142 15.86 5.142 15.86C6.144 15.93 6.669 16.888 6.669 16.888C7.559 18.412 9.005 17.972 9.571 17.717C9.662 17.072 9.922 16.632 10.206 16.383C7.992 16.132 5.664 15.276 5.664 11.453C5.664 10.366 6.053 9.474 6.688 8.778C6.587 8.525 6.242 7.51 6.787 6.138C6.787 6.138 7.624 5.869 9.529 7.159C10.3426 6.93767 11.1818 6.8247 12.025 6.823C12.8682 6.82437 13.7075 6.93735 14.521 7.159C16.427 5.868 17.263 6.138 17.263 6.138C17.808 7.51 17.466 8.525 17.362 8.778C18.002 9.474 18.386 10.365 18.386 11.453C18.386 15.286 16.056 16.128 13.834 16.375C14.189 16.683 14.509 17.291 14.509 18.221C14.509 19.555 14.497 20.631 14.497 20.958C14.497 21.225 14.675 21.535 15.184 21.437C19.146 20.115 22 16.379 22 11.974C22 6.465 17.535 2 12.026 2Z" fill="white"/>
</svg>
